X: 7714
T: Colm's
R: reel
M: 4/4
K: Gmajor
GA|BG ~G2 cG ~G2|BGAB AFDC|B,G, ~G,2 B,CDc|BGAB ADGA|
BG ~G2 cABc|BGAB AFDC|B,G, ~G,2 CEDC|B,BAF G2:|
GA|Bd ~d2 eddB|GBAF GEDB|cB (3ABc BA (3GAB|Add^c d2 B=c|
dB ~B2 cA ~A2|BGGB AFDC|B,G, ~G,2CEDC|B,BAF G2:|

